Newaita/actions/24/tool-spray.svg

<svg height="24" viewBox="0 0 24 24" width="24" xmlns="http://www.w3.org/2000/svg"><g fill="#424242"><path d="m12.898438 4.15625c-.546876 0-.992188.441406-.992188.992188v2.480468h6.945312v-2.480468c0-.550782-.441406-.992188-.992187-.992188zm0 0"/><path d="m3.722656 3.164062c.410156 0 .742188.332032.742188.746094 0 .410156-.332032.742188-.742188.742188-.414062 0-.746094-.332032-.746094-.742188 0-.414062.332032-.746094.746094-.746094zm0 0"/><path d="m6.203125 3.660156c.339844 0 .617187.277344.617187.621094s-.277343.621094-.617187.621094c-.34375 0-.621094-.277344-.621094-.621094s.277344-.621094.621094-.621094zm0 0"/><path d="m9.921875 5.644531c.273437 0 .496094.222657.496094.496094s-.222657.496094-.496094.496094-.496094-.222657-.496094-.496094.222657-.496094.496094-.496094zm0 0"/><path d="m6.203125 7.132812c.339844 0 .617187.277344.617187.621094s-.277343.621094-.617187.621094c-.34375 0-.621094-.277344-.621094-.621094s.277344-.621094.621094-.621094zm0 0"/><path d="m3.722656 5.398438c.410156 0 .742188.332031.742188.742187s-.332032.746094-.742188.746094c-.414062 0-.746094-.335938-.746094-.746094s.332032-.742187.746094-.742187zm0 0"/><path d="m3.722656 7.628906c.410156 0 .742188.332032.742188.746094 0 .410156-.332032.742188-.742188.742188-.414062 0-.746094-.332032-.746094-.742188 0-.414062.332032-.746094.746094-.746094zm0 0"/><path d="m8.1875 4.902344c.273438 0 .496094.21875.496094.496094 0 .273437-.222656.496093-.496094.496093s-.496094-.222656-.496094-.496093c0-.277344.222656-.496094.496094-.496094zm0 0"/><path d="m8.1875 6.390625c.273438 0 .496094.222656.496094.496094 0 .273437-.222656.496093-.496094.496093s-.496094-.222656-.496094-.496093c0-.273438.222656-.496094.496094-.496094zm0 0"/><path d="m10.914062 8.621094c-.546874 0-.992187.445312-.992187.992187v10.417969c0 .550781.445313.996094.992187.996094h8.929688c.550781 0 .996094-.445313.996094-.996094v-10.417969c0-.546875-.445313-.992187-.996094-.992187zm1.488282 1.984375h5.953125c.277343 0 .496093.222656.496093.496093v7.441407c0 .277343-.21875.496093-.496093.496093h-5.953125c-.273438 0-.496094-.21875-.496094-.496093v-7.441407c0-.273437.222656-.496093.496094-.496093zm0 0"/><path d="m6.203125 5.398438c.339844 0 .617187.277343.617187.617187 0 .34375-.277343.621094-.617187.621094-.34375 0-.621094-.277344-.621094-.621094 0-.339844.277344-.617187.621094-.617187zm0 0"/></g></svg>

<svg xmlns="http://www.w3.org/2000/svg" xmlns:xlink="http://www.w3.org/1999/xlink" width="24px" height="24px" viewBox="0 0 24 24" version="1.1">
<g id="surface1">
     <defs>
  <style id="current-color-scheme" type="text/css">
   .ColorScheme-Text { color:#424242; } .ColorScheme-Highlight { color:#eeeeee; }
  </style>
 </defs>
<path style="fill:currentColor" class="ColorScheme-Text" d="M 12.898438 4.15625 C 12.351562 4.15625 11.90625 4.597656 11.90625 5.148438 L 11.90625 7.628906 L 18.851562 7.628906 L 18.851562 5.148438 C 18.851562 4.597656 18.410156 4.15625 17.859375 4.15625 Z M 12.898438 4.15625 "/>
     <defs>
  <style id="current-color-scheme" type="text/css">
   .ColorScheme-Text { color:#424242; } .ColorScheme-Highlight { color:#eeeeee; }
  </style>
 </defs>
<path style="fill:currentColor" class="ColorScheme-Text" d="M 3.722656 3.164062 C 4.132812 3.164062 4.464844 3.496094 4.464844 3.910156 C 4.464844 4.320312 4.132812 4.652344 3.722656 4.652344 C 3.308594 4.652344 2.976562 4.320312 2.976562 3.910156 C 2.976562 3.496094 3.308594 3.164062 3.722656 3.164062 Z M 3.722656 3.164062 "/>
     <defs>
  <style id="current-color-scheme" type="text/css">
   .ColorScheme-Text { color:#424242; } .ColorScheme-Highlight { color:#eeeeee; }
  </style>
 </defs>
<path style="fill:currentColor" class="ColorScheme-Text" d="M 6.203125 3.660156 C 6.542969 3.660156 6.820312 3.9375 6.820312 4.28125 C 6.820312 4.625 6.542969 4.902344 6.203125 4.902344 C 5.859375 4.902344 5.582031 4.625 5.582031 4.28125 C 5.582031 3.9375 5.859375 3.660156 6.203125 3.660156 Z M 6.203125 3.660156 "/>
     <defs>
  <style id="current-color-scheme" type="text/css">
   .ColorScheme-Text { color:#424242; } .ColorScheme-Highlight { color:#eeeeee; }
  </style>
 </defs>
<path style="fill:currentColor" class="ColorScheme-Text" d="M 9.921875 5.644531 C 10.195312 5.644531 10.417969 5.867188 10.417969 6.140625 C 10.417969 6.414062 10.195312 6.636719 9.921875 6.636719 C 9.648438 6.636719 9.425781 6.414062 9.425781 6.140625 C 9.425781 5.867188 9.648438 5.644531 9.921875 5.644531 Z M 9.921875 5.644531 "/>
     <defs>
  <style id="current-color-scheme" type="text/css">
   .ColorScheme-Text { color:#424242; } .ColorScheme-Highlight { color:#eeeeee; }
  </style>
 </defs>
<path style="fill:currentColor" class="ColorScheme-Text" d="M 6.203125 7.132812 C 6.542969 7.132812 6.820312 7.410156 6.820312 7.753906 C 6.820312 8.097656 6.542969 8.375 6.203125 8.375 C 5.859375 8.375 5.582031 8.097656 5.582031 7.753906 C 5.582031 7.410156 5.859375 7.132812 6.203125 7.132812 Z M 6.203125 7.132812 "/>
     <defs>
  <style id="current-color-scheme" type="text/css">
   .ColorScheme-Text { color:#424242; } .ColorScheme-Highlight { color:#eeeeee; }
  </style>
 </defs>
<path style="fill:currentColor" class="ColorScheme-Text" d="M 3.722656 5.398438 C 4.132812 5.398438 4.464844 5.730469 4.464844 6.140625 C 4.464844 6.550781 4.132812 6.886719 3.722656 6.886719 C 3.308594 6.886719 2.976562 6.550781 2.976562 6.140625 C 2.976562 5.730469 3.308594 5.398438 3.722656 5.398438 Z M 3.722656 5.398438 "/>
     <defs>
  <style id="current-color-scheme" type="text/css">
   .ColorScheme-Text { color:#424242; } .ColorScheme-Highlight { color:#eeeeee; }
  </style>
 </defs>
<path style="fill:currentColor" class="ColorScheme-Text" d="M 3.722656 7.628906 C 4.132812 7.628906 4.464844 7.960938 4.464844 8.375 C 4.464844 8.785156 4.132812 9.117188 3.722656 9.117188 C 3.308594 9.117188 2.976562 8.785156 2.976562 8.375 C 2.976562 7.960938 3.308594 7.628906 3.722656 7.628906 Z M 3.722656 7.628906 "/>
     <defs>
  <style id="current-color-scheme" type="text/css">
   .ColorScheme-Text { color:#424242; } .ColorScheme-Highlight { color:#eeeeee; }
  </style>
 </defs>
<path style="fill:currentColor" class="ColorScheme-Text" d="M 8.1875 4.902344 C 8.460938 4.902344 8.683594 5.121094 8.683594 5.398438 C 8.683594 5.671875 8.460938 5.894531 8.1875 5.894531 C 7.914062 5.894531 7.691406 5.671875 7.691406 5.398438 C 7.691406 5.121094 7.914062 4.902344 8.1875 4.902344 Z M 8.1875 4.902344 "/>
     <defs>
  <style id="current-color-scheme" type="text/css">
   .ColorScheme-Text { color:#424242; } .ColorScheme-Highlight { color:#eeeeee; }
  </style>
 </defs>
<path style="fill:currentColor" class="ColorScheme-Text" d="M 8.1875 6.390625 C 8.460938 6.390625 8.683594 6.613281 8.683594 6.886719 C 8.683594 7.160156 8.460938 7.382812 8.1875 7.382812 C 7.914062 7.382812 7.691406 7.160156 7.691406 6.886719 C 7.691406 6.613281 7.914062 6.390625 8.1875 6.390625 Z M 8.1875 6.390625 "/>
     <defs>
  <style id="current-color-scheme" type="text/css">
   .ColorScheme-Text { color:#424242; } .ColorScheme-Highlight { color:#eeeeee; }
  </style>
 </defs>
<path style="fill:currentColor" class="ColorScheme-Text" d="M 10.914062 8.621094 C 10.367188 8.621094 9.921875 9.066406 9.921875 9.613281 L 9.921875 20.03125 C 9.921875 20.582031 10.367188 21.027344 10.914062 21.027344 L 19.84375 21.027344 C 20.394531 21.027344 20.839844 20.582031 20.839844 20.03125 L 20.839844 9.613281 C 20.839844 9.066406 20.394531 8.621094 19.84375 8.621094 Z M 12.402344 10.605469 L 18.355469 10.605469 C 18.632812 10.605469 18.851562 10.828125 18.851562 11.101562 L 18.851562 18.542969 C 18.851562 18.820312 18.632812 19.039062 18.355469 19.039062 L 12.402344 19.039062 C 12.128906 19.039062 11.90625 18.820312 11.90625 18.542969 L 11.90625 11.101562 C 11.90625 10.828125 12.128906 10.605469 12.402344 10.605469 Z M 12.402344 10.605469 "/>
     <defs>
  <style id="current-color-scheme" type="text/css">
   .ColorScheme-Text { color:#424242; } .ColorScheme-Highlight { color:#eeeeee; }
  </style>
 </defs>
<path style="fill:currentColor" class="ColorScheme-Text" d="M 6.203125 5.398438 C 6.542969 5.398438 6.820312 5.675781 6.820312 6.015625 C 6.820312 6.359375 6.542969 6.636719 6.203125 6.636719 C 5.859375 6.636719 5.582031 6.359375 5.582031 6.015625 C 5.582031 5.675781 5.859375 5.398438 6.203125 5.398438 Z M 6.203125 5.398438 "/>
</g>
</svg>
